app/images/wialon.svg

<svg width="440" height="107" viewBox="0 0 440 107" fill="none" xmlns="http://www.w3.org/2000/svg">
<path fill-rule="evenodd" clip-rule="evenodd" d="M143.337 7.6738V15.3471L145.117 15.7241C147.52 16.2326 153.706 16.0617 155.318 15.4418L156.623 14.9403V7.47017V0H149.98H143.337V7.6738ZM257.686 51.9806V103.961L258.99 103.611C259.708 103.418 262.59 103.263 265.396 103.265L270.496 103.269V51.6349V0H264.091H257.686V51.9806ZM198.139 24.3445C186.032 27.6394 177.849 35.3378 173.541 47.4828C172.099 51.551 172.072 51.785 171.897 62.2712L171.719 72.9259H178.405H185.091V63.795C185.091 55.8111 185.215 54.2948 186.077 51.7196C188.741 43.7612 195.281 38.1497 203.625 36.6614C214.658 34.6938 226.103 42.7071 228.52 54.093C229.058 56.626 229.202 62.1949 229.209 80.63L229.217 103.961L230.522 103.598C231.24 103.398 234.13 103.255 236.946 103.28L242.065 103.324L241.928 77.2338L241.791 51.1429L240.532 47.4596C238.699 42.0958 235.757 37.4479 231.622 33.3849C227.411 29.2466 223.372 26.7524 218.067 25.0131C212.852 23.3036 203.16 22.9783 198.139 24.3445ZM311.779 24.2076C307.854 25.0633 300.938 28.4463 297.439 31.2213C291.894 35.621 287.489 42.5954 285.635 49.9116C284.734 53.4646 284.664 54.8654 284.826 65.9695C284.998 77.839 285.034 78.2273 286.326 81.9233C288.557 88.31 290.277 91.0329 295.158 95.9094C300.192 100.939 303.913 103.209 309.795 104.835C326.844 109.55 343.699 101.98 351.617 86.0521C354.31 80.6371 354.946 76.5755 354.95 64.7881C354.953 53.5684 354.512 50.0395 352.48 45.0213C350.717 40.6666 346.497 34.8842 342.842 31.8151C338.831 28.4473 332.223 25.1481 327.521 24.1655C323.286 23.2809 315.938 23.3003 311.779 24.2076ZM396.469 24.1659C385.194 26.9603 376.587 33.9423 372.016 44.0037C368.998 50.6471 368.969 50.9729 368.959 78.6066L368.95 103.702L370.848 103.468C371.892 103.338 374.828 103.28 377.372 103.338L381.998 103.443V80.317C381.998 66.66 382.195 56.1473 382.48 54.6405C383.548 48.9844 387.738 42.7289 392.426 39.7891C404.994 31.9103 421.599 38.566 425.478 53.037C425.968 54.8668 426.114 60.9225 426.118 79.6829L426.124 103.961L427.429 103.607C428.147 103.413 431.146 103.274 434.094 103.297L439.454 103.34L439.286 77.7149C439.1 49.4078 439.174 50.1574 435.879 43.0926C432.044 34.8676 424.515 28.2787 415.296 25.0808C412.25 24.0239 410.642 23.7876 405.484 23.6384C401.085 23.5115 398.5 23.6626 396.469 24.1659ZM0.159899 51.7021C0.336878 79.8728 0.282313 79.3155 3.55144 86.1852C6.91689 93.258 12.686 99.0912 19.7367 102.55C25.3891 105.323 28.6825 106.043 35.6316 106.028C41.0605 106.016 41.944 105.884 46.07 104.477C51.9625 102.468 56.5407 99.5709 60.654 95.2488L63.9891 91.7446L66.462 94.548C71.4274 100.178 78.8278 104.228 86.6329 105.586C93.332 106.752 98.2978 106.365 104.589 104.186C109.511 102.482 112.805 100.321 117.241 95.8877C121.783 91.3492 124.258 87.4694 126.149 81.9233L127.441 78.1349L127.579 52.2917L127.718 26.4484L124.454 26.8689C122.548 27.1142 119.876 27.1133 118.03 26.8661L114.869 26.4437L114.865 48.7377C114.863 61.8099 114.658 72.3051 114.37 74.1098C112.451 86.1198 100.866 94.6645 89.2059 92.669C84.6951 91.8971 81.2462 90.1852 77.8171 87.0167C74.5461 83.9941 72.9044 81.4308 71.6366 77.3654C70.811 74.7178 70.7427 72.6806 70.7427 50.7062C70.7427 37.6198 70.6369 26.8074 70.5074 26.6781C70.3778 26.5488 68.8486 26.6336 67.1087 26.8661C65.2687 27.1123 62.5893 27.1142 60.7019 26.8713L57.4574 26.4532V49.2477C57.4574 63.5744 57.2662 73.0855 56.9431 74.8514C54.6846 87.1924 42.0921 95.4193 30.1951 92.3266C22.1765 90.242 15.6197 83.6787 13.8343 75.9495C13.5462 74.7031 13.3498 64.4774 13.3427 50.3629L13.3313 26.8528L8.94242 26.921C6.52877 26.9584 3.52914 26.8154 2.27653 26.6028L0 26.2169L0.159899 51.7021ZM153.301 26.8069C151.866 27.0309 149.037 27.0835 147.014 26.9234L143.337 26.6331V64.951V103.268L149.98 103.286L156.623 103.304V64.7928C156.623 43.6116 156.463 26.3083 156.267 26.3409C156.071 26.3731 154.737 26.5829 153.301 26.8069ZM324.477 36.9403C332.275 38.7748 338.138 44.123 340.682 51.7196C341.555 54.327 341.668 55.8011 341.668 64.5816C341.668 72.9652 341.53 74.9423 340.774 77.3654C339.506 81.4308 337.864 83.9941 334.593 87.0167C328.138 92.9815 319.63 94.5745 311.526 91.3369C304.855 88.6718 299.171 81.4161 298.03 74.1098C297.405 70.1135 297.411 59.1041 298.041 55.168C299.14 48.2888 303.856 41.8675 310.046 38.8231C315.304 36.2376 319.284 35.7181 324.477 36.9403ZM200.274 88.6595V103.919L201.816 103.576C202.665 103.387 205.654 103.233 208.459 103.233H213.56V88.3161V73.3995H206.917H200.274V88.6595Z" fill="#3C3C3C"/>
</svg>

<svg xmlns="http://www.w3.org/2000/svg" width="440" height="107" fill="none"><path fill="#3C3C3C" fill-rule="evenodd" d="M143.337 7.674v7.673l1.78.377c2.403.509 8.589.338 10.201-.282l1.305-.502V0h-13.286v7.674ZM257.686 51.98v51.98l1.304-.35c.718-.193 3.6-.348 6.406-.346l5.1.004V0h-12.81v51.98Zm-59.547-27.637c-12.107 3.295-20.29 10.994-24.598 23.139-1.442 4.068-1.469 4.302-1.644 14.788l-.178 10.655h13.372v-9.131c0-7.984.124-9.5.986-12.075 2.664-7.959 9.204-13.57 17.548-15.059 11.033-1.967 22.478 6.046 24.895 17.432.538 2.533.682 8.102.689 26.537l.008 23.331 1.305-.363c.718-.2 3.608-.343 6.424-.318l5.119.044-.137-26.09-.137-26.091-1.259-3.683c-1.833-5.364-4.775-10.012-8.91-14.075-4.211-4.138-8.25-6.633-13.555-8.372-5.215-1.71-14.907-2.035-19.928-.669Zm113.64-.136c-3.925.855-10.841 4.238-14.34 7.013-5.545 4.4-9.95 11.374-11.804 18.69-.901 3.554-.971 4.954-.809 16.058.172 11.87.208 12.258 1.5 15.954 2.231 6.387 3.951 9.11 8.832 13.986 5.034 5.03 8.755 7.3 14.637 8.926 17.049 4.715 33.904-2.855 41.822-18.783 2.693-5.415 3.329-9.477 3.333-21.264.003-11.22-.438-14.748-2.47-19.767-1.763-4.354-5.983-10.137-9.638-13.206-4.011-3.368-10.619-6.667-15.321-7.65-4.235-.884-11.583-.865-15.742.043Zm84.69-.042c-11.275 2.794-19.882 9.776-24.453 19.838-3.018 6.643-3.047 6.969-3.057 34.603l-.009 25.095 1.898-.234c1.044-.13 3.98-.188 6.524-.13l4.626.105V80.317c0-13.657.197-24.17.482-25.676 1.068-5.657 5.258-11.912 9.946-14.852 12.568-7.879 29.173-1.223 33.052 13.248.49 1.83.636 7.886.64 26.646l.006 24.278 1.305-.354c.718-.194 3.717-.333 6.665-.31l5.36.043-.168-25.625c-.186-28.307-.112-27.558-3.407-34.622-3.835-8.225-11.364-14.814-20.583-18.012-3.046-1.057-4.654-1.293-9.812-1.443-4.399-.127-6.984.025-9.015.528ZM.159 51.702c.178 28.17.123 27.614 3.392 34.483 3.366 7.073 9.135 12.906 16.186 16.365 5.652 2.773 8.946 3.493 15.895 3.478 5.428-.012 6.312-.144 10.438-1.551 5.892-2.009 10.47-4.906 14.584-9.228l3.335-3.504 2.473 2.803c4.965 5.63 12.366 9.68 20.17 11.038 6.7 1.166 11.666.779 17.957-1.4 4.922-1.704 8.216-3.865 12.652-8.298 4.542-4.539 7.017-8.419 8.908-13.965l1.292-3.788.138-25.843.139-25.844-3.264.42c-1.906.246-4.578.245-6.424-.002l-3.161-.422-.004 22.294c-.002 13.072-.207 23.567-.495 25.372-1.919 12.01-13.504 20.555-25.164 18.559-4.51-.772-7.96-2.484-11.389-5.652-3.27-3.023-4.913-5.586-6.18-9.652-.826-2.647-.894-4.684-.894-26.659 0-13.086-.106-23.899-.236-24.028-.13-.13-1.658-.044-3.398.188-1.84.246-4.52.248-6.407.005l-3.245-.418v22.795c0 14.326-.19 23.837-.514 25.603-2.258 12.341-14.85 20.568-26.748 17.476-8.018-2.085-14.575-8.648-16.36-16.377-.289-1.247-.485-11.473-.492-25.587l-.012-23.51-4.389.068c-2.413.037-5.413-.106-6.665-.318L0 26.217l.16 25.485Zm153.142-24.895c-1.435.224-4.264.277-6.287.116l-3.677-.29V103.268l6.643.018 6.643.018V64.793c0-21.181-.16-38.485-.356-38.452-.196.032-1.53.242-2.966.466ZM324.477 36.94c7.798 1.835 13.661 7.183 16.205 14.78.873 2.607.986 4.081.986 12.862 0 8.383-.138 10.36-.894 12.783-1.268 4.066-2.91 6.63-6.181 9.652-6.455 5.965-14.963 7.558-23.067 4.32-6.671-2.665-12.355-9.92-13.496-17.227-.625-3.996-.619-15.006.011-18.942 1.099-6.88 5.815-13.3 12.005-16.345 5.258-2.585 9.238-3.105 14.431-1.883ZM200.274 88.66v15.259l1.542-.343c.849-.189 3.838-.343 6.643-.343h5.101V73.4h-13.286v15.26Z" clip-rule="evenodd"/></svg>
